X:3013
T:Old Mac Donald
T:Old McDonald
C:anon.
O:England
R:Nursery song
Z:Transcribed by Frank Nordberg - http://www.musicaviva.com
F:http://abc.musicaviva.com/tunes/england/old-mac-donald-f/old-mac-donald-f-1.abc
M:C|
L:1/4
K:F
"F"FFFC|"Bb"DD"F"C2|"G7"AA"C7"GG|"F"F2 z C|
"F"FFFC|"Bb"DD"F"C2|"G7"AA"C7"GG|"F"F2 z2|]
W:
W:
W:  From Musica Viva - http://www.musicaviva.com
W:  the Internet center for free sheet music downloads.

